!!!COM: Schubert, Franz
!!!CDT: 1797/01/31-1828/11/19
!!!SCT: D. 790
!!!OPR: 12 Deutsche Tänze
!!!OPS: 171
!!!ONM: 9
**kern	**kern	**dynam
*part1	*part1	*part1
*staff2	*staff1	*
*clefF4	*clefG2	*
*k[f#c#g#d#a#]	*k[f#c#g#d#a#]	*
*B:	*B:	*
*M3/4	*M3/4	*
=1	=1	=1
4FF#	8dd#L	p
.	8a#J	.
4F# 4B 4d#	8bL	.
.	8a#J	.
4F# 4B 4d#	8b^L	.
.	8gg#J	.
=2	=2	=2
4FF#	8ff#L	.
.	8b#XJ	.
4F# 4A# 4e	8cc#L	.
.	8b#J	.
4F# 4A# 4e	8cc#L	.
.	8ddnJ	.
=3	=3	=3
4FF#	8dd#L	.
.	8a#J	.
4F# 4B 4d#	8bL	.
.	8a#J	.
4F# 4B 4d#	8b^L	.
.	8gg#J	.
=4	=4	=4
4FF#	8ff#L	.
.	8b#XJ	.
4F# 4A# 4e	8cc#L	.
.	8b#J	.
4F# 4A# 4e	8cc#L	.
.	8ddnJ	.
=5	=5	=5
4BB	8dd#L	.
.	8a#J	.
4F# 4B 4d#	8bL	.
.	8a#J	.
4F# 4B 4d#	8b^L	fp
.	8ff#J	.
=6	=6	=6
4AA#	8cc#L	.
.	8g##XJ	.
4F# 4A# 4c#	8a#L	.
.	8g##J	.
4F# 4A# 4c#	8a#^L	fp
.	8ff#J	.
=7	=7	=7
4C#	(8ee#XL	.
.	8b#XJ	<
4B 4c# 4e#X	8cc#L	.
.	8b#J	.
4B 4c# 4e#	12cc#^L	.
.	12bb	.
.	12ee#J)	.
=8	=8	=8
4F#	(4.ff#^	.
4A# 4c# 4f#	.	.
.	8ee	.
4r	8dd#L	.
.	8cc#J)	.
=9:|!	=9:|!	=9:|!
*F#:	*F#	*
4F#	2ff#	.
4A# 4c# 4f#	.	.
4r	[4ff#^	pp
=10	=10	=10
*D:	*D:	*
4D	8ff#L]	.
.	8cc#J	.
*clefG2	*	*
4dn 4f# 4an	8ddnL	.
.	8cc#J	.
4d 4f# 4a	8dd^L	.
.	8aanJ	.
=11	=11	=11
4An	8eeL	.
.	8b#XJ	.
4c# 4e 4an	8cc#L	.
.	8b#J	.
4c# 4e 4a	8cc#^L	.
.	8eeJ	.
*clefF4	*	*
=12	=12	=12
4E	8ggnL	.
.	8dd#J	.
*clefG2	*	*
4B 4e 4gn	8eeL	.
.	8dd#J	.
4B 4e 4g	8ee^L	.
.	8bbJ	.
=13	=13	=13
4B	8ff#L	.
.	8cc#J	.
4dn 4f# 4b	8ddnL	.
.	8cc#J	.
4d 4f# 4b	8dd^L	.
.	8bbJ	.
*clefF4	*	*
=14	=14	=14
*B:	*B:	*
4GGn	8dddnL	.
.	8aa#J	.
4Gn 4B 4dn	8bbL	<
.	8aa#J	.
4G 4B 4d	8bb^L	.
.	8dddJ	.
=15	=15	=15
4FF#	8ddd#L	.
.	8aa#J	.
4F# 4B 4d#	8bbL	.
.	8aa#J	.
4F# 4B 4d#	8bb^L	.
.	8ddd#J	.
=16	=16	=16
4FF#	8ggg#L	f
.	8eee#XJ	.
4F# 4A# 4e	8fff#L	.
.	8eee#J	.
4F# 4A# 4e	8ggg#L	.
.	8fff#J	.
=17	=17	=17
4BB	4bb	.
4F# 4B 4d#	4r	.
4r	[4ff#^	pp
=18	=18	=18
*D:	*D:	*
4D	8ff#L]	.
.	8cc#J	.
*clefG2	*	*
4dn 4f# 4an	8ddnL	.
.	8cc#J	.
4d 4f# 4a	8dd^L	.
.	8aanJ	.
=19	=19	=19
4An	8eeL	.
.	8b#XJ	.
4c# 4e 4an	8cc#L	.
.	8b#J	.
4c# 4e 4a	8cc#^L	.
.	8eeJ	.
*clefF4	*	*
=20	=20	=20
4E	8ggnL	.
.	8dd#J	.
*clefG2	*	*
4B 4e 4gn	8eeL	.
.	8dd#J	.
4B 4e 4g	8ee^L	.
.	8bbJ	.
=21	=21	=21
4B	8ff#L	.
.	8cc#J	.
4dn 4f# 4b	8ddnL	.
.	8cc#J	.
4d 4f# 4b	8dd^L	.
.	8bbJ	.
*clefF4	*	*
=22	=22	=22
*B:	*B:	*
4GGn	8dddnL	.
.	8aa#J	.
4Gn 4B 4dn	8bbL	<
.	8aa#J	.
4G 4B 4d	8bb^L	.
.	8dddJ	.
=23	=23	=23
4FF#	8ddd#L	.
.	8aa#J	.
4F# 4B 4d#	8bbL	.
.	8aa#J	.
4F# 4B 4d#	8bb^L	.
.	8ddd#J	.
=24	=24	=24
4FF#	8ggg#L	f
.	8eee#XJ	.
4F# 4A# 4e	8fff#L	.
.	8eee#J	.
4F# 4A# 4e	8ggg#L	.
.	8fff#J	.
=25	=25	=25
4BB	4bb	.
4F# 4B 4d#	4r	.
4r	4r	.
==	==	==
*-	*-	*-
!!!system-decoration: {(s1,s2)}
!!!AGN: Walzer
!!!EED: Wolfgang Drescher
!!!END: 2025/11/03
!!!ENC: Florian Moldaschl
!!!EEV: 2025/11/22
!!!title: @{OPR}, @{SCT} №@{ONM}